icon-themes/sifr_svg/cmd/sc_mergedialog.svg

<svg viewBox="0 0 16 16" xmlns="http://www.w3.org/2000/svg"><path d="m1 1v14h2v-12h8v1.3808594l2 1v-4.3808594zm9 4-6 3v8h9.585938l-1-1h-1.185547c-.858702 0-1.8687072-.270451-2.7734379-1h-2.6269531v-3.699219l2 .84961v-.150391h3v-1.4824219l-1 .4824219-3.1992188-1.5449219 3.1992188-1.4550781 2.199219 1h1.214843l.292969.2929688c.947429.9474289 1.292969 2.0592732 1.292969 3.1074222v1.185547l1 1v-5.585938zm2 4v1c1.56 1.6-.566483 3.5-2 2h-1v1c.8.77 1.640782 1 2.400391 1h1.599609l2 2h1v-1l-2-2v-1.599609c0-.9-.2-1.600391-1-2.400391z" fill="#555753"/></svg>

<svg xmlns="http://www.w3.org/2000/svg" viewBox="0 0 16 16">
  <path
     style="fill:#555753"
     d="M 1 1 L 1 15 L 3 15 L 3 3 L 11 3 L 11 4.3808594 L 13 5.3808594 L 13 1 L 1 1 z M 10 5 L 4 8 L 4 16 L 13.585938 16 L 12.585938 15 L 11.400391 15 C 10.541689 15 9.5316838 14.729549 8.6269531 14 L 6 14 L 6 10.300781 L 8 11.150391 L 8 11 L 11 11 L 11 9.5175781 L 10 10 L 6.8007812 8.4550781 L 10 7 L 12.199219 8 L 13.414062 8 L 13.707031 8.2929688 C 14.65446 9.2403977 15 10.352242 15 11.400391 L 15 12.585938 L 16 13.585938 L 16 8 L 10 5 z M 12 9 L 12 10 C 13.56 11.6 11.433517 13.5 10 12 L 9 12 L 9 13 C 9.8 13.77 10.640782 14 11.400391 14 L 13 14 L 15 16 L 16 16 L 16 15 L 14 13 L 14 11.400391 C 14 10.500391 13.8 9.8 13 9 L 12 9 z "
     />
</svg>
